X:1
T:Title
%%score { ( 1 3 ) | ( 2 4 ) }
L:1/8
Q:1/4=81
M:6/8
K:Bb
V:1 treble nm="Grand Piano"
V:3 treble 
V:2 bass 
V:4 bass 
V:1
 [DF]<[DF][DF] [DF]2 [DF] | G<GG- G2 G | F2 F E2 F | D3- D2 [DF] | [DF]2 [DF] [DF]2 [DF] | %5
w: Chas.~Edw.~Pollock * * * *|||||
 G2 G G2 G | [DF]2 [DF] [DB]2 [B,FB] | [CFA]2 [DFB] c2 c | d2 [B,FB] [B,GB]2 [B,EG] | D3- [DB]3 | %10
w: |||||
 A<AB c3[Q:1/4=80][Q:1/4=79][Q:1/4=77][Q:1/4=76][Q:1/4=75][Q:1/4=74][Q:1/4=73][Q:1/4=71] | %11
w: |
[M:15/16] [DB]/[DB]-[DB]/[CA][DB]3/2- [DB]3[Q:1/4=70][Q:1/4=69][Q:1/4=68][Q:1/4=67][Q:1/4=66][Q:1/4=64][Q:1/4=63][Q:1/4=62] |] %12
w: |
V:2
 [B,,B,]<[B,,B,][B,,B,] [B,,B,]2 [B,,B,] | [E,B,E]<[E,B,E][E,B,E]- [E,B,E]2 [E,B,E] | %2
 [F,B,D]2 [F,B,D] [F,C]2 [F,D] | [B,,F,B,]3- [B,,F,B,]2 [B,,B,] | %4
 [B,,B,]2 [B,,B,] [B,,B,]2 [B,,B,] | [E,B,E]2 [E,B,E] [E,B,E]2 [E,B,E] | %6
 [B,,B,]2 [B,,B,] [B,,B,]2 D, | C,2 B,,[K:treble] [F,A,F]2 [F,A,F] | [B,F]2[K:bass] D, E,2 E, | %9
 z3 F,3 | [F,C]<[F,C][F,D] [F,E]3 |[M:15/16] [F,,F,]/[F,,F,]-[F,,F,]/[F,,F,][B,,F,]3/2- [B,,F,]3 |] %12
V:3
 x6 | x6 | x6 | x6 | x6 | x6 | x6 | x6 | x6 | [B,F]3 z3 | x6 |[M:15/16] x15/2 |] %12
V:4
 x6 | x6 | x6 | x6 | x6 | x6 | x6 | x3[K:treble] x3 | x2[K:bass] x4 | B,,6 | x6 |[M:15/16] x15/2 |] %12

